X:11544
T:My heart is sair. CJF.208
M:2/4
L:1/8
Q:160
S: C.J.Fox MS, 1829/33, Beverley,E.Yorks.
R:Air
O:England
A:East Yorkshire
B:Kidson Coll.Mitchell Lib.M1805
Z:P J Headford 2000
K:F
C|F> A c> A|G> F G> A|F> F f> c|d> c Az/F/|F> A c> A|\
G> F Gz/A/|F> D D>C|
c> A F||!d2B> d|c> A F2|B2A> F|G> E C2|F> A G> B|\
A dhc2|F> D D> C|c> AF2||
